app/dist/common/images/brink-s.svg

<svg height="18" width="18" xmlns="http://www.w3.org/2000/svg"><path d="m0 0h18v18h-18z" fill="#154995"/><path d="m12.79 12h-3.343v-6h3.389s1.959.024 1.959 1.638c0 0 .068.744-.65 1.225 0 0 .854.44.854 1.55.001 1.113-.72 1.587-2.209 1.587zm-4.79-6h1.08v6h-1.08zm-1.38 0h.842v6h-.842zm-1.216 0h.629v6h-.629zm-1.146 0h.44v6h-.44zm-1.258 0h.304v6h-.304z" fill="#fff"/><path d="m12.736 10.88h-1.193s-.165.02-.165-.196v-3.108s-.024-.168.177-.168h1.025s.537-.008.537.48c0 .489-.441.537-.557.537h-.773s-.096-.028-.096.112v1.054s-.024.104.128.104h.953s.573-.012.573.593c0 .604-.573.592-.609.592z" fill="#154995"/></svg>

<!-- by TradingView --><svg width="18" height="18" xmlns="http://www.w3.org/2000/svg"><path fill="#154995" d="M0 0h18v18H0z"/><path d="M12.79 12H9.447V6h3.389s1.959.024 1.959 1.638c0 0 .068.744-.65 1.225 0 0 .854.44.854 1.55C15 11.526 14.279 12 12.79 12zM8 6h1.08v6H8V6zM6.62 6h.842v6H6.62V6zM5.404 6h.629v6h-.629V6zM4.258 6h.44v6h-.44V6zM3 6h.304v6H3V6z" fill="#fff"/><path d="M12.736 10.88h-1.193s-.165.02-.165-.196V7.576s-.024-.168.177-.168h1.025s.537-.008.537.48c0 .489-.441.537-.557.537h-.773s-.096-.028-.096.112v1.054s-.024.104.128.104h.953s.573-.012.573.593c0 .604-.573.592-.609.592z" fill="#154995"/></svg>
